**kern
*clefG2
*k[b-e-a-d-g-]
*M4/4
=1-
4a
2a
4b
=2
16a
8b
8b
4cc
16dd
16ee
16ee
16dd
=3
16ee
8r
8ff
4ee
4ee
16ff
=4
2ff
2ee
=5
16dd
8ee
4ee
8dd
4cc
8dd
16cc
=6
1cc
=7
8dd
2ee
8ff
16ee
8ff
=8
2gg
4gg
=9
4aa
8gg
16gg
4ff
8ff
16gg
8aa
=10
16gg
8aa
8aa
8bb
8bb
4ccc
16ddd
16ddd
*-